; generated by PrusaSlicer 2.3.1+linux-x64 on 2021-04-29 at 19:23:03 UTC

; 

; external perimeters extrusion width = 0.45mm
; perimeters extrusion width = 0.45mm
; infill extrusion width = 0.45mm
; solid infill extrusion width = 0.45mm
; top infill extrusion width = 0.40mm
; support material extrusion width = 0.35mm
; first layer extrusion width = 0.42mm

M73 P0 R112
M73 Q0 S113
M201 X1000 Y1000 Z200 E5000 ; sets maximum accelerations, mm/sec^2
M203 X200 Y200 Z12 E120 ; sets maximum feedrates, mm/sec
M204 P1250 R1250 T1250 ; sets acceleration (P, T) and retract acceleration (R), mm/sec^2
M205 X8.00 Y8.00 Z0.40 E4.50 ; sets the jerk limits, mm/sec
M205 S0 T0 ; sets the minimum extruding and travel feed rate, mm/sec
M107
;TYPE:Custom
M862.3 P "MK3SMMU2S" ; printer model check
M862.1 P0.4 ; nozzle diameter check
M115 U3.9.3 ; tell printer latest fw version
G90 ; use absolute coordinates
M83 ; extruder relative mode
M104 S215 ; set extruder temp
M140 S60 ; set bed temp
Tx
M190 S60 ; wait for bed temp
M109 S215 ; wait for extruder temp
G28 W ; home all without mesh bed level
G80 ; mesh bed leveling

;go outside print area
G1 Y-3.0 F1000.0
G1 Z0.4 F1000.0
; select extruder
Tc
; purge line
G1 X55.0 F2000.0
M73 P0 R111
G1 Z0.3 F1000.0
G92 E0.0
G1 X240.0 E25.0 F2200.0
G1 Y-2.0 F1000.0
G1 X55.0 E25 F1400.0
G1 Z0.20 F1000.0
G1 X5.0 E4.0 F1000.0

M221 S95
G92 E0.0

; Don't change E values below. Excessive value can damage the printer.
M907 E430 ; set extruder motor current
G21 ; set units to millimeters
G90 ; use absolute coordinates
M83 ; use relative distances for extrusion
M900 K0.05 ; Filament gcode LA 1.5
M900 K30 ; Filament gcode LA 1.0
;LAYER_CHANGE
;Z:0.2
;HEIGHT:0.2
;BEFORE_LAYER_CHANGE
G92 E0.0
;0.2


M73 Q0 S112
G1 E-0.80000 F2100.000
G1 Z0.400 F10800.000
;AFTER_LAYER_CHANGE
;0.2
G1 X46.968 Y81.264
G1 Z0.200
G1 E0.80000 F2100.000
M204 S1000
;TYPE:Skirt
;WIDTH:0.42
G1 F1200.000
G1 X47.506 Y81.054 E0.01811
G1 X48.079 Y80.980 E0.01811
G1 X115.975 Y80.810 E2.12884
G1 X126.028 Y80.981 E0.31527
G1 X126.640 Y81.077 E0.01941
G1 X127.219 Y81.335 E0.01989
G1 X127.709 Y81.738 E0.01989
G1 X129.899 Y84.210 E0.10355
G1 X130.323 Y85.039 E0.02919
G1 X130.413 Y85.678 E0.02024
G1 X130.401 Y115.328 E0.92965
G1 X130.219 Y116.033 E0.02284
G1 X129.829 Y116.653 E0.02296
G1 X127.381 Y119.002 E0.10637
G1 X126.901 Y119.343 E0.01846
G1 X126.363 Y119.553 E0.01811
G1 X125.787 Y119.628 E0.01823
G1 X48.072 Y119.797 E2.43669
G1 X47.444 Y119.707 E0.01989
G1 X46.866 Y119.455 E0.01977
G1 X46.372 Y119.058 E0.01989
G1 X46.002 Y118.547 E0.01977
G1 X45.792 Y118.009 E0.01811
G1 X45.718 Y117.441 E0.01799
G1 X45.719 Y83.296 E1.07058
G1 X45.816 Y82.681 E0.01953
G1 X46.070 Y82.112 E0.01953
G1 X46.463 Y81.629 E0.01953
G1 X46.919 Y81.299 E0.01765
;WIPE_START
G1 F8640.000
G1 X47.506 Y81.054 E-0.14681
G1 X48.079 Y80.980 E-0.13336
G1 X50.157 Y80.975 E-0.47984
;WIPE_END
G1 E-0.04000 F2100.000
G1 Z0.600 F10800.000
G1 X62.032 Y80.756
G1 Z0.200
G1 E0.80000 F2100.000
G1 F1200.000
G1 X61.854 Y80.432 E0.01161
G1 X60.960 Y79.515 E0.04016
G1 X59.928 Y78.873 E0.03808
G1 X58.764 Y78.513 E0.03823
G1 X49.319 Y78.455 E0.29614
G1 X47.443 Y78.479 E0.05884
G1 X45.820 Y78.992 E0.05336
G1 X44.878 Y79.643 E0.03590
G1 X44.110 Y80.475 E0.03550
G1 X43.567 Y81.430 E0.03447
G1 X43.251 Y82.490 E0.03468
G1 X43.205 Y92.366 E0.30965
G1 X43.446 Y93.422 E0.03394
G1 X44.100 Y94.632 E0.04315
G1 X45.227 Y95.719 E0.04909
G1 X45.457 Y95.856 E0.00838
G1 X45.474 Y96.894 E0.03255
G1 X45.530 Y97.105 E0.00687
;WIPE_START
G1 F8640.000
G1 X45.474 Y96.894 E-0.05058
G1 X45.457 Y95.856 E-0.23969
G1 X45.227 Y95.719 E-0.06172
G1 X44.100 Y94.632 E-0.36151
G1 X44.004 Y94.455 E-0.04650
;WIPE_END
G1 E-0.04000 F2100.000
G1 Z0.600 F10800.000
G1 X45.907 Y98.347
G1 Z0.200
G1 E0.80000 F2100.000
G1 F1200.000
G1 X46.333 Y99.121 E0.02770
G1 X47.391 Y100.259 E0.04873
G1 X47.118 Y100.453 E0.01051
G1 X46.025 Y101.639 E0.05056
G1 X45.907 Y101.875 E0.00828
G1 X45.530 Y102.714 F10800.000
G1 F1200.000
G1 X45.300 Y103.551 E0.02722
G1 X45.269 Y104.927 E0.04317
G1 X44.110 Y106.085 E0.05136
G1 X43.593 Y106.983 E0.03249
G1 X43.280 Y107.938 E0.03152
G1 X43.192 Y117.927 E0.31321
G1 X43.651 Y119.533 E0.05236
G1 X44.156 Y120.313 E0.02916
G1 X45.154 Y121.278 E0.04353
G1 X46.086 Y121.805 E0.03356
G1 X47.111 Y122.094 E0.03337
G1 X48.232 Y122.124 E0.03516
G1 X48.502 Y122.153 E0.00853
G1 X54.475 Y122.153 E0.18728
G1 X54.715 Y122.128 E0.00755
G1 X55.319 Y122.153 E0.01898
G1 X58.279 Y122.153 E0.09279
G1 X59.543 Y121.889 E0.04050
G1 X60.680 Y121.309 E0.04002
G1 X61.699 Y120.368 E0.04349
G1 X61.959 Y119.956 E0.01529
G1 X62.198 Y119.578 F10800.000
G1 F1200.000
G1 X62.379 Y119.290 E0.01068
G1 X62.719 Y118.245 E0.03444
G1 X62.755 Y117.496 E0.02353
G1 X108.140 Y117.496 E1.42302
G1 X108.153 Y117.848 E0.01105
G1 X108.357 Y118.792 E0.03029
G1 X108.698 Y119.476 E0.02397
G1 X108.886 Y119.853 F10800.000
G1 F1200.000
G1 X108.979 Y120.040 E0.00655
G1 X109.792 Y120.946 E0.03817
G1 X110.834 Y121.655 E0.03951
G1 X112.165 Y122.093 E0.04392
G1 X124.793 Y122.153 E0.39597
G1 X126.593 Y122.101 E0.05646
G1 X127.984 Y121.649 E0.04584
G1 X128.869 Y121.070 E0.03318
G1 X129.659 Y120.268 E0.03531
G1 X130.169 Y119.390 E0.03183
G1 X130.955 Y118.969 E0.02796
G1 X131.841 Y118.145 E0.03793
G1 X132.558 Y117.029 E0.04159
G1 X132.919 Y115.749 E0.04170
G1 X132.938 Y101.511 E0.44641
G1 X132.656 Y100.427 E0.03512
G1 X132.938 Y99.307 E0.03624
G1 X132.938 Y85.201 E0.44226
G1 X132.495 Y83.614 E0.05167
G1 X131.933 Y82.688 E0.03396
G1 X130.962 Y81.732 E0.04274
G1 X130.454 Y81.437 E0.01843
G1 X129.832 Y80.308 E0.04039
G1 X129.045 Y79.526 E0.03479
G1 X128.241 Y78.985 E0.03040
G1 X126.495 Y78.462 E0.05715
G1 X116.408 Y78.455 E0.31628
G1 X115.802 Y78.480 E0.01902
G1 X115.562 Y78.455 E0.00755
G1 X112.700 Y78.455 E0.08973
G1 X111.921 Y78.553 E0.02461
G1 X110.377 Y79.216 E0.05268
G1 X109.240 Y80.231 E0.04782
G1 X108.981 Y80.639 E0.01515
G1 X108.740 Y81.017 F10800.000
G1 F1200.000
G1 X108.559 Y81.302 E0.01058
G1 X108.213 Y82.359 E0.03488
G1 X108.176 Y83.122 E0.02395
G1 X64.395 Y83.112 E1.37273
G1 X64.084 Y82.595 E0.01890
G1 X63.232 Y81.752 E0.03758
G1 X62.263 Y81.181 E0.03527
G1 X62.238 Y81.133 E0.00170
G1 X61.810 Y81.134 F10800.000
G1 F1200.000
G1 X61.981 Y81.453 E0.01132
G1 X62.984 Y82.038 E0.03642
G1 X63.800 Y82.845 E0.03600
G1 X64.176 Y83.489 E0.02338
G1 X108.542 Y83.499 E1.39104
G1 X108.580 Y82.450 E0.03291
G1 X108.910 Y81.441 E0.03328
G1 X109.180 Y81.016 E0.01581
G1 X109.420 Y80.638 F10800.000
G1 F1200.000
G1 X109.512 Y80.494 E0.00537
G1 X110.557 Y79.549 E0.04416
G1 X111.996 Y78.924 E0.04921
G1 X112.712 Y78.832 E0.02263
G1 X115.551 Y78.832 E0.08901
G1 X115.788 Y78.858 E0.00748
G1 X116.411 Y78.832 E0.01955
G1 X126.467 Y78.839 E0.31530
G1 X128.055 Y79.315 E0.05197
G1 X128.793 Y79.807 E0.02780
G1 X129.547 Y80.556 E0.03332
G1 X130.174 Y81.712 E0.04125
G1 X130.717 Y82.019 E0.01957
G1 X131.625 Y82.906 E0.03978
G1 X132.140 Y83.743 E0.03080
G1 X132.561 Y85.228 E0.04840
G1 X132.561 Y99.282 E0.44067
G1 X132.265 Y100.429 E0.03713
G1 X132.561 Y101.536 E0.03593
G1 X132.548 Y115.674 E0.44327
G1 X132.224 Y116.851 E0.03829
G1 X131.567 Y117.886 E0.03843
G1 X130.717 Y118.675 E0.03636
G1 X129.896 Y119.107 E0.02909
G1 X129.373 Y120.021 E0.03301
G1 X128.615 Y120.790 E0.03387
G1 X127.799 Y121.320 E0.03049
G1 X126.555 Y121.725 E0.04103
G1 X124.785 Y121.776 E0.05552
G1 X112.254 Y121.726 E0.39290
G1 X110.978 Y121.305 E0.04215
G1 X110.056 Y120.676 E0.03498
G1 X109.309 Y119.852 E0.03489
G1 X109.119 Y119.476 F10800.000
G1 F1200.000
G1 X108.706 Y118.646 E0.02906
G1 X108.526 Y117.790 E0.02742
G1 X108.514 Y117.076 E0.02239
G1 X108.012 Y117.119 E0.01578
G1 X62.389 Y117.119 E1.43047
G1 X62.352 Y118.155 E0.03251
G1 X62.028 Y119.151 E0.03285
G1 X61.758 Y119.579 E0.01586
G1 X61.520 Y119.957 F10800.000
G1 F1200.000
G1 X61.423 Y120.109 E0.00566
G1 X60.485 Y120.985 E0.04026
G1 X59.395 Y121.542 E0.03838
G1 X58.260 Y121.776 E0.03633
G1 X55.323 Y121.776 E0.09207
G1 X54.701 Y121.750 E0.01952
G1 X54.464 Y121.776 E0.00748
G1 X48.513 Y121.776 E0.18660
G1 X48.256 Y121.747 E0.00809
G1 X47.189 Y121.725 E0.03346
G1 X46.212 Y121.448 E0.03186
G1 X45.363 Y120.963 E0.03065
G1 X44.435 Y120.059 E0.04062
G1 X43.983 Y119.353 E0.02628
G1 X43.569 Y117.903 E0.04729
G1 X43.647 Y108.028 E0.30963
G1 X43.945 Y107.120 E0.02997
G1 X44.423 Y106.295 E0.02989
G1 X45.400 Y105.316 E0.04333
G1 X45.530 Y105.235 E0.00480
;WIPE_START
G1 F8640.000
G1 X45.400 Y105.316 E-0.03537
G1 X44.423 Y106.295 E-0.31913
G1 X43.945 Y107.120 E-0.22015
G1 X43.695 Y107.882 E-0.18535
;WIPE_END
G1 E-0.04000 F2100.000
G1 Z0.600 F10800.000
G1 X45.907 Y102.764
G1 Z0.200
G1 E0.80000 F2100.000
G1 F1200.000
G1 X45.940 Y102.644 E0.00389
G1 X46.349 Y101.833 E0.02850
G1 X47.375 Y100.730 E0.04723
G1 X48.154 Y100.225 E0.02911
G1 X47.507 Y99.830 E0.02378
G1 X46.625 Y98.882 E0.04057
G1 X46.157 Y98.021 E0.03072
G1 X45.907 Y97.061 E0.03112
;WIPE_START
G1 F8640.000
G1 X46.157 Y98.021 E-0.22915
G1 X46.625 Y98.882 E-0.22627
G1 X47.507 Y99.830 E-0.29876
G1 X47.528 Y99.843 E-0.00582
;WIPE_END
G1 E-0.04000 F2100.000
G1 Z0.600 F10800.000
G1 X45.530 Y95.461
G1 Z0.200
G1 E0.80000 F2100.000
G1 F1200.000
G1 X45.467 Y95.427 E0.00225
G1 X44.418 Y94.426 E0.04546
G1 X43.790 Y93.265 E0.04139
G1 X43.582 Y92.347 E0.02953
G1 X43.620 Y82.572 E0.30647
G1 X43.922 Y81.560 E0.03313
G1 X44.426 Y80.682 E0.03174
G1 X45.139 Y79.915 E0.03283
G1 X46.010 Y79.318 E0.03309
G1 X47.475 Y78.856 E0.04818
G1 X49.319 Y78.832 E0.05781
G1 X58.681 Y78.881 E0.29354
G1 X59.752 Y79.208 E0.03512
G1 X60.706 Y79.795 E0.03513
G1 X61.565 Y80.675 E0.03855
G1 X61.609 Y80.758 E0.00293
G1 X61.389 Y81.135 F10800.000
G1 F1200.000
G1 X61.720 Y81.768 E0.02240
G1 X61.860 Y81.818 E0.00465
G1 X62.737 Y82.323 E0.03173
G1 X63.516 Y83.094 E0.03438
G1 X63.956 Y83.866 E0.02785
G1 X108.910 Y83.876 E1.40951
M73 P0 R110
G1 X108.947 Y82.540 E0.04189
G1 X109.261 Y81.582 E0.03162
G1 X109.625 Y81.015 E0.02115
G1 X109.906 Y80.637 F10800.000
G1 F1200.000
G1 X110.737 Y79.881 E0.03523
G1 X112.072 Y79.294 E0.04574
G1 X112.725 Y79.209 E0.02063
G1 X115.540 Y79.209 E0.08827
G1 X115.774 Y79.236 E0.00740
G1 X116.415 Y79.209 E0.02012
G1 X126.440 Y79.216 E0.31431
G1 X127.870 Y79.644 E0.04683
G1 X128.540 Y80.088 E0.02519
G1 X129.260 Y80.803 E0.03182
G1 X129.894 Y81.989 E0.04216
G1 X130.474 Y82.309 E0.02076
G1 X131.318 Y83.126 E0.03684
G1 X131.785 Y83.873 E0.02763
G1 X132.184 Y85.255 E0.04508
G1 X132.184 Y99.258 E0.43904
G1 X131.875 Y100.431 E0.03805
G1 X132.184 Y101.562 E0.03676
G1 X132.178 Y115.601 E0.44017
G1 X131.890 Y116.676 E0.03489
G1 X131.292 Y117.626 E0.03522
G1 X130.480 Y118.381 E0.03474
G1 X129.623 Y118.823 E0.03024
G1 X129.087 Y119.774 E0.03423
G1 X128.361 Y120.510 E0.03240
G1 X127.616 Y120.989 E0.02778
G1 X126.517 Y121.349 E0.03626
G1 X124.777 Y121.399 E0.05457
G1 X112.342 Y121.358 E0.38989
G1 X111.168 Y120.978 E0.03871
G1 X110.288 Y120.378 E0.03339
G1 X109.814 Y119.851 E0.02220
G1 X109.532 Y119.475 F10800.000
G1 F1200.000
G1 X109.070 Y118.545 E0.03256
G1 X108.899 Y117.732 E0.02606
G1 X108.888 Y116.732 E0.03134
G1 X108.235 Y116.714 E0.02049
G1 X107.998 Y116.742 E0.00748
G1 X62.021 Y116.742 E1.44160
M73 P1 R110
M73 Q1 S112
G1 X61.985 Y118.065 E0.04151
G1 X61.677 Y119.012 E0.03124
G1 X61.319 Y119.580 E0.02104
G1 X61.035 Y119.958 F10800.000
G1 F1200.000
G1 X60.287 Y120.663 E0.03224
G1 X59.291 Y121.178 E0.03515
G1 X58.240 Y121.399 E0.03368
G1 X55.327 Y121.399 E0.09132
G1 X54.687 Y121.372 E0.02009
G1 X54.453 Y121.399 E0.00740
G1 X48.524 Y121.399 E0.18589
G1 X48.281 Y121.370 E0.00768
G1 X47.266 Y121.355 E0.03183
G1 X46.378 Y121.109 E0.02889
G1 X45.572 Y120.648 E0.02912
G1 X44.716 Y119.806 E0.03764
G1 X44.317 Y119.175 E0.02342
G1 X43.946 Y117.879 E0.04227
G1 X44.015 Y108.116 E0.30610
G1 X44.282 Y107.291 E0.02719
G1 X44.737 Y106.506 E0.02846
G1 X45.530 Y105.718 E0.03503
G1 X45.907 Y105.451 F10800.000
G1 F1200.000
G1 X46.017 Y105.388 E0.00399
G1 X46.041 Y103.704 E0.05280
G1 X46.298 Y102.763 E0.03058
G1 X46.672 Y102.029 E0.02584
G1 X47.633 Y101.006 E0.04398
G1 X48.286 Y100.591 E0.02427
G1 X48.472 Y100.512 E0.00633
G1 X48.472 Y99.969 E0.01703
G1 X47.762 Y99.551 E0.02584
G1 X46.944 Y98.679 E0.03748
G1 X46.516 Y97.903 E0.02778
G1 X46.215 Y96.750 E0.03736
G1 X46.209 Y95.397 E0.04242
G1 X45.907 Y95.239 E0.01069
G1 X45.530 Y94.968 F10800.000
G1 F1200.000
G1 X44.735 Y94.220 E0.03424
G1 X44.134 Y93.109 E0.03959
G1 X43.959 Y92.327 E0.02513
G1 X43.989 Y82.654 E0.30329
G1 X44.277 Y81.689 E0.03157
G1 X44.741 Y80.891 E0.02896
G1 X45.399 Y80.189 E0.03018
G1 X46.199 Y79.646 E0.03030
G1 X47.508 Y79.232 E0.04304
G1 X49.319 Y79.209 E0.05679
G1 X58.597 Y79.250 E0.29092
G1 X59.619 Y79.561 E0.03349
G1 X60.453 Y80.075 E0.03069
G1 X61.120 Y80.759 E0.02995
G1 X60.961 Y81.136 F10800.000
G1 F1200.000
G1 X61.459 Y82.088 E0.03368
G1 X61.697 Y82.159 E0.00778
G1 X62.490 Y82.609 E0.02858
G1 X63.231 Y83.343 E0.03272
G1 X63.733 Y84.243 E0.03232
G1 X108.801 Y84.253 E1.41308
G1 X109.281 Y84.250 E0.01504
G1 X109.314 Y82.631 E0.05078
G1 X109.611 Y81.723 E0.02994
G1 X110.073 Y81.013 E0.02656
G1 X110.456 Y80.635 F10800.000
G1 F1200.000
G1 X110.919 Y80.213 E0.01964
G1 X112.149 Y79.664 E0.04224
G1 X112.737 Y79.586 E0.01859
G1 X115.528 Y79.586 E0.08750
G1 X115.759 Y79.614 E0.00729
G1 X116.419 Y79.586 E0.02072
G1 X126.412 Y79.593 E0.31332
G1 X127.687 Y79.975 E0.04173
G1 X128.288 Y80.369 E0.02255
G1 X128.974 Y81.050 E0.03029
G1 X129.614 Y82.268 E0.04314
G1 X130.233 Y82.599 E0.02202
G1 X131.013 Y83.348 E0.03391
G1 X131.431 Y84.006 E0.02445
G1 X131.807 Y85.282 E0.04170
G1 X131.807 Y99.232 E0.43739
G1 X131.536 Y100.241 E0.03275
M73 Q1 S111
G1 X131.469 Y100.381 E0.00487
G1 X131.807 Y101.588 E0.03930
G1 X131.807 Y115.530 E0.43712
G1 X131.554 Y116.502 E0.03150
G1 X131.016 Y117.368 E0.03195
G1 X130.243 Y118.086 E0.03308
G1 X129.349 Y118.539 E0.03142
G1 X128.800 Y119.528 E0.03549
G1 X128.108 Y120.230 E0.03089
G1 X127.434 Y120.658 E0.02504
G1 X126.479 Y120.972 E0.03154
G1 X124.769 Y121.022 E0.05362
G1 X112.428 Y120.990 E0.38695
G1 X111.355 Y120.650 E0.03529
G1 X110.553 Y120.108 E0.03036
G1 X110.321 Y119.850 E0.01088
G1 X109.982 Y119.474 F10800.000
G1 F1200.000
G1 X109.900 Y119.382 E0.00385
G1 X109.434 Y118.444 E0.03285
G1 X109.272 Y117.673 E0.02470
G1 X109.264 Y116.374 E0.04073
G1 X108.214 Y116.337 E0.03293
G1 X107.986 Y116.365 E0.00721
G1 X61.650 Y116.365 E1.45285
G1 X61.617 Y117.977 E0.05058
G1 X61.344 Y118.834 E0.02819
G1 X60.878 Y119.581 E0.02760
G1 X60.490 Y119.959 F10800.000
G1 F1200.000
G1 X60.089 Y120.341 E0.01735
G1 X59.141 Y120.831 E0.03347
G1 X58.221 Y121.022 E0.02946
G1 X55.332 Y121.022 E0.09060
G1 X54.672 Y120.993 E0.02070
G1 X54.441 Y121.022 E0.00729
G1 X48.536 Y121.022 E0.18514
G1 X48.305 Y120.993 E0.00729
G1 X47.342 Y120.985 E0.03021
G1 X46.502 Y120.752 E0.02732
G1 X45.783 Y120.335 E0.02608
G1 X44.998 Y119.555 E0.03469
G1 X44.651 Y118.998 E0.02057
G1 X44.324 Y117.854 E0.03732
G1 X44.383 Y108.205 E0.30255
G1 X44.634 Y107.427 E0.02562
G1 X45.049 Y106.719 E0.02575
G1 X45.530 Y106.246 E0.02112
G1 X45.907 Y105.882 F10800.000
G1 F1200.000
G1 X46.392 Y105.613 E0.01739
G1 X46.411 Y103.779 E0.05750
G1 X46.656 Y102.882 E0.02917
G1 X46.995 Y102.226 E0.02314
G1 X47.889 Y101.284 E0.04073
G1 X48.466 Y100.923 E0.02136
G1 X48.849 Y100.777 E0.01283
G1 X48.849 Y99.749 E0.03224
G1 X48.015 Y99.270 E0.03014
G1 X47.261 Y98.473 E0.03441
G1 X46.875 Y97.784 E0.02478
G1 X46.586 Y96.678 E0.03581
G1 X46.586 Y95.163 E0.04751
G1 X45.907 Y94.806 E0.02407
G1 X45.530 Y94.456 F10800.000
G1 F1200.000
G1 X45.051 Y94.013 E0.02047
G1 X44.478 Y92.953 E0.03776
G1 X44.336 Y92.307 E0.02073
G1 X44.358 Y82.736 E0.30011
G1 X44.631 Y81.819 E0.02998
G1 X45.054 Y81.101 E0.02613
G1 X45.658 Y80.464 E0.02753
G1 X46.386 Y79.974 E0.02753
G1 X47.540 Y79.609 E0.03795
G1 X49.319 Y79.586 E0.05578
G1 X58.514 Y79.619 E0.28829
G1 X59.486 Y79.915 E0.03186
G1 X60.199 Y80.355 E0.02626
G1 X60.594 Y80.760 E0.01775
G1 X60.436 Y81.138 F10800.000
G1 F1200.000
G1 X60.694 Y81.402 E0.01160
G1 X61.198 Y82.411 E0.03537
G1 X61.537 Y82.502 E0.01098
G1 X62.243 Y82.896 E0.02536
G1 X62.946 Y83.591 E0.03101
G1 X63.399 Y84.419 E0.02958
G1 X63.464 Y84.620 E0.00663
