; generated by PrusaSlicer 2.3.1+linux-x64 on 2021-04-29 at 12:49:34 UTC

; 

; external perimeters extrusion width = 0.45mm
; perimeters extrusion width = 0.45mm
; infill extrusion width = 0.45mm
; solid infill extrusion width = 0.45mm
; top infill extrusion width = 0.40mm
; support material extrusion width = 0.35mm
; first layer extrusion width = 0.42mm

M73 P0 R135
M73 Q0 S136
M201 X1000 Y1000 Z200 E5000 ; sets maximum accelerations, mm/sec^2
M203 X200 Y200 Z12 E120 ; sets maximum feedrates, mm/sec
M204 P1250 R1250 T1250 ; sets acceleration (P, T) and retract acceleration (R), mm/sec^2
M205 X8.00 Y8.00 Z0.40 E4.50 ; sets the jerk limits, mm/sec
M205 S0 T0 ; sets the minimum extruding and travel feed rate, mm/sec
M107
;TYPE:Custom
M862.3 P "MK3SMMU2S" ; printer model check
M862.1 P0.4 ; nozzle diameter check
M115 U3.9.3 ; tell printer latest fw version
G90 ; use absolute coordinates
M83 ; extruder relative mode
M104 S215 ; set extruder temp
M140 S60 ; set bed temp
Tx
M190 S60 ; wait for bed temp
M109 S215 ; wait for extruder temp
G28 W ; home all without mesh bed level
G80 ; mesh bed leveling

;go outside print area
G1 Y-3.0 F1000.0
G1 Z0.4 F1000.0
; select extruder
Tc
; purge line
G1 X55.0 F2000.0
G1 Z0.3 F1000.0
G92 E0.0
G1 X240.0 E25.0 F2200.0
G1 Y-2.0 F1000.0
G1 X55.0 E25 F1400.0
G1 Z0.20 F1000.0
G1 X5.0 E4.0 F1000.0

M221 S95
G92 E0.0

; Don't change E values below. Excessive value can damage the printer.

M907 E538 ; set extruder motor current
G21 ; set units to millimeters
G90 ; use absolute coordinates
M83 ; use relative distances for extrusion
M900 K0.05 ; Filament gcode LA 1.5
M900 K30 ; Filament gcode LA 1.0
;LAYER_CHANGE
;Z:0.2
;HEIGHT:0.2
;BEFORE_LAYER_CHANGE
G92 E0.0
;0.2


G1 E-0.80000 F2100.000
G1 Z0.400 F10800.000
;AFTER_LAYER_CHANGE
;0.2
G1 X43.132 Y21.350
G1 Z0.200
G1 E0.80000 F2100.000
M204 S1000
;TYPE:Skirt
;WIDTH:0.42
G1 F1200.000
G1 X43.657 Y20.631 E0.02790
G1 X44.409 Y20.155 E0.02790
G1 X45.283 Y19.990 E0.02790
G1 X123.741 Y20.160 E2.46000
G1 X124.662 Y20.357 E0.02954
G1 X125.432 Y20.894 E0.02942
G1 X125.871 Y21.540 E0.02449
G1 X126.077 Y22.294 E0.02449
G1 X130.787 Y72.867 E1.59254
G1 X130.790 Y106.996 E1.07010
G1 X130.589 Y107.905 E0.02919
G1 X130.056 Y108.664 E0.02907
G1 X129.313 Y109.146 E0.02778
G1 X128.445 Y109.323 E0.02778
G1 X80.894 Y109.323 E1.49093
G1 X52.172 Y109.153 E0.90056
G1 X51.275 Y108.948 E0.02884
G1 X50.524 Y108.418 E0.02884
G1 X50.107 Y107.820 E0.02284
G1 X49.891 Y107.120 E0.02296
G1 X42.907 Y56.293 E1.60862
G1 X42.908 Y22.211 E1.06863
G1 X43.117 Y21.408 E0.02602
; printing object MDX-1000_Outer_Piece.stl id:1 copy 0
;WIPE_START
G1 F8640.000
G1 X43.657 Y20.631 E-0.21841
G1 X44.409 Y20.155 E-0.20547
G1 X45.283 Y19.990 E-0.20547
G1 X45.849 Y19.991 E-0.13066
;WIPE_END
G1 E-0.04000 F2100.000
G1 Z0.600 F10800.000
G1 X45.280 Y22.367
G1 Z0.200
G1 E0.80000 F2100.000
;TYPE:Support material
G1 F1200.000
G1 X45.280 Y56.151 E1.05929
G1 X46.034 Y56.151 E0.02365
G1 X46.034 Y22.537 E1.05397
G1 X46.789 Y22.537 E0.02365
G1 X46.789 Y56.151 E1.05397
G1 X47.543 Y56.151 E0.02365
G1 X47.543 Y22.537 E1.05397
G1 X48.297 Y22.537 E0.02365
G1 X48.297 Y56.151 E1.05397
G1 X49.051 Y56.151 E0.02365
G1 X49.051 Y22.537 E1.05397
G1 X49.805 Y22.537 E0.02365
G1 X49.805 Y27.467 E0.15457
G1 X50.559 Y27.467 E0.02365
G1 X50.559 Y22.537 E0.15457
G1 X51.314 Y22.537 E0.02365
G1 X51.314 Y27.467 E0.15457
G1 X52.068 Y27.467 E0.02365
G1 X52.068 Y22.537 E0.15457
G1 X52.822 Y22.537 E0.02365
G1 X52.822 Y29.774 E0.22691
G1 X53.576 Y29.774 E0.02365
G1 X53.576 Y22.537 E0.22691
G1 X54.330 Y22.537 E0.02365
G1 X54.330 Y29.774 E0.22691
G1 X54.847 Y29.774 E0.01619
G1 X54.847 Y32.765 E0.09379
G1 X54.330 Y32.765 E0.01619
G1 X54.330 Y45.923 E0.41257
G1 X53.576 Y45.923 E0.02365
G1 X53.576 Y32.765 E0.41257
G1 X52.822 Y32.765 E0.02365
G1 X52.822 Y45.923 E0.41257
G1 X52.068 Y45.923 E0.02365
G1 X52.068 Y32.765 E0.41257
G1 X51.314 Y32.765 E0.02365
G1 X51.314 Y45.923 E0.41257
G1 X50.559 Y45.923 E0.02365
G1 X50.559 Y32.765 E0.41257
G1 X49.805 Y32.765 E0.02365
G1 X49.805 Y45.923 E0.41257
M73 Q0 S135
G1 X49.548 Y45.923 E0.00806
G1 X49.548 Y51.221 E0.16613
G1 X49.805 Y51.221 E0.00806
G1 X49.805 Y56.151 E0.15457
G1 X50.559 Y56.151 E0.02365
G1 X50.559 Y51.221 E0.15457
G1 X51.314 Y51.221 E0.02365
G1 X51.314 Y56.151 E0.15457
G1 X52.068 Y56.151 E0.02365
G1 X52.068 Y51.221 E0.15457
G1 X52.540 Y51.221 E0.01479
G1 X52.540 Y48.914 E0.07234
G1 X52.822 Y48.914 E0.00885
G1 X52.822 Y56.151 E0.22691
G1 X53.576 Y56.151 E0.02365
G1 X53.576 Y48.914 E0.22691
M73 P0 R134
G1 X54.330 Y48.914 E0.02365
G1 X54.330 Y56.151 E0.22691
G1 X55.084 Y56.151 E0.02365
G1 X55.084 Y22.537 E1.05397
G1 X55.839 Y22.537 E0.02365
G1 X55.839 Y56.151 E1.05397
G1 X56.593 Y56.151 E0.02365
G1 X56.593 Y22.537 E1.05397
G1 X57.347 Y22.537 E0.02365
G1 X57.347 Y56.151 E1.05397
G1 X58.101 Y56.151 E0.02365
G1 X58.101 Y22.537 E1.05397
G1 X58.855 Y22.537 E0.02365
G1 X58.855 Y56.151 E1.05397
G1 X59.609 Y56.151 E0.02365
G1 X59.609 Y22.537 E1.05397
G1 X60.364 Y22.537 E0.02365
G1 X60.364 Y56.151 E1.05397
G1 X61.118 Y56.151 E0.02365
G1 X61.118 Y22.537 E1.05397
G1 X61.872 Y22.537 E0.02365
G1 X61.872 Y56.151 E1.05397
G1 X62.626 Y56.151 E0.02365
G1 X62.626 Y22.537 E1.05397
G1 X63.380 Y22.537 E0.02365
G1 X63.380 Y56.151 E1.05397
G1 X64.134 Y56.151 E0.02365
G1 X64.134 Y22.537 E1.05397
G1 X64.888 Y22.537 E0.02365
G1 X64.888 Y56.151 E1.05397
G1 X65.643 Y56.151 E0.02365
G1 X65.643 Y22.537 E1.05397
M73 P1 R134
M73 Q1 S135
G1 X66.397 Y22.537 E0.02365
G1 X66.397 Y56.151 E1.05397
G1 X67.151 Y56.151 E0.02365
G1 X67.151 Y22.537 E1.05397
G1 X67.905 Y22.537 E0.02365
G1 X67.905 Y56.151 E1.05397
G1 X68.659 Y56.151 E0.02365
G1 X68.659 Y22.537 E1.05397
G1 X69.413 Y22.537 E0.02365
G1 X69.413 Y56.151 E1.05397
G1 X70.168 Y56.151 E0.02365
G1 X70.168 Y22.537 E1.05397
G1 X70.922 Y22.537 E0.02365
G1 X70.922 Y56.151 E1.05397
G1 X71.676 Y56.151 E0.02365
G1 X71.676 Y22.537 E1.05397
G1 X72.430 Y22.537 E0.02365
G1 X72.430 Y56.151 E1.05397
G1 X73.184 Y56.151 E0.02365
G1 X73.184 Y22.537 E1.05397
G1 X73.938 Y22.537 E0.02365
G1 X73.938 Y56.151 E1.05397
G1 X74.693 Y56.151 E0.02365
G1 X74.693 Y22.537 E1.05397
G1 X75.447 Y22.537 E0.02365
G1 X75.447 Y56.151 E1.05397
G1 X76.201 Y56.151 E0.02365
G1 X76.201 Y22.537 E1.05397
G1 X76.955 Y22.537 E0.02365
G1 X76.955 Y56.151 E1.05397
G1 X77.709 Y56.151 E0.02365
G1 X77.709 Y22.537 E1.05397
G1 X78.463 Y22.537 E0.02365
G1 X78.463 Y56.151 E1.05397
G1 X79.217 Y56.151 E0.02365
G1 X79.217 Y22.537 E1.05397
M73 Q1 S134
G1 X79.972 Y22.537 E0.02365
G1 X79.972 Y56.151 E1.05397
G1 X80.726 Y56.151 E0.02365
G1 X80.726 Y43.300 E0.40294
M73 P1 R133
G1 X80.540 Y43.300 E0.00582
G1 X80.540 Y35.388 E0.24809
G1 X80.726 Y35.388 E0.00582
G1 X80.726 Y22.537 E0.40294
G1 X81.480 Y22.537 E0.02365
G1 X81.480 Y56.151 E1.05397
G1 X82.234 Y56.151 E0.02365
G1 X82.234 Y22.537 E1.05397
G1 X82.988 Y22.537 E0.02365
G1 X82.988 Y56.151 E1.05397
G1 X83.742 Y56.151 E0.02365
G1 X83.742 Y22.537 E1.05397
G1 X84.497 Y22.537 E0.02365
G1 X84.497 Y56.151 E1.05397
G1 X85.251 Y56.151 E0.02365
G1 X85.251 Y22.537 E1.05397
G1 X86.005 Y22.537 E0.02365
G1 X86.005 Y56.151 E1.05397
G1 X86.759 Y56.151 E0.02365
G1 X86.759 Y22.537 E1.05397
G1 X87.513 Y22.537 E0.02365
G1 X87.513 Y56.151 E1.05397
G1 X88.267 Y56.151 E0.02365
G1 X88.267 Y22.537 E1.05397
G1 X89.022 Y22.537 E0.02365
G1 X89.022 Y56.151 E1.05397
G1 X89.776 Y56.151 E0.02365
G1 X89.776 Y22.537 E1.05397
G1 X90.530 Y22.537 E0.02365
G1 X90.530 Y56.151 E1.05397
G1 X91.284 Y56.151 E0.02365
G1 X91.284 Y22.537 E1.05397
G1 X92.038 Y22.537 E0.02365
G1 X92.038 Y56.151 E1.05397
G1 X92.792 Y56.151 E0.02365
G1 X92.792 Y22.537 E1.05397
G1 X93.546 Y22.537 E0.02365
G1 X93.546 Y56.151 E1.05397
G1 X94.301 Y56.151 E0.02365
G1 X94.301 Y22.537 E1.05397
G1 X95.055 Y22.537 E0.02365
G1 X95.055 Y56.151 E1.05397
G1 X95.809 Y56.151 E0.02365
G1 X95.809 Y22.537 E1.05397
G1 X96.563 Y22.537 E0.02365
G1 X96.563 Y56.151 E1.05397
G1 X97.317 Y56.151 E0.02365
G1 X97.317 Y22.537 E1.05397
G1 X98.071 Y22.537 E0.02365
G1 X98.071 Y56.151 E1.05397
G1 X98.826 Y56.151 E0.02365
G1 X98.826 Y22.537 E1.05397
G1 X99.580 Y22.537 E0.02365
G1 X99.580 Y56.151 E1.05397
G1 X100.334 Y56.151 E0.02365
G1 X100.334 Y22.537 E1.05397
M73 P2 R133
G1 X101.088 Y22.537 E0.02365
G1 X101.088 Y56.151 E1.05397
M73 Q2 S134
G1 X101.842 Y56.151 E0.02365
G1 X101.842 Y22.537 E1.05397
G1 X102.596 Y22.537 E0.02365
G1 X102.596 Y56.151 E1.05397
G1 X103.351 Y56.151 E0.02365
G1 X103.351 Y22.537 E1.05397
G1 X104.105 Y22.537 E0.02365
G1 X104.105 Y56.151 E1.05397
G1 X104.859 Y56.151 E0.02365
G1 X104.859 Y22.537 E1.05397
G1 X105.613 Y22.537 E0.02365
G1 X105.613 Y56.151 E1.05397
M73 Q2 S133
G1 X106.367 Y56.151 E0.02365
G1 X106.367 Y22.537 E1.05397
M73 P2 R132
G1 X107.121 Y22.537 E0.02365
G1 X107.121 Y56.151 E1.05397
G1 X107.876 Y56.151 E0.02365
G1 X107.876 Y22.537 E1.05397
G1 X108.630 Y22.537 E0.02365
G1 X108.630 Y56.151 E1.05397
G1 X109.384 Y56.151 E0.02365
G1 X109.384 Y22.537 E1.05397
G1 X110.138 Y22.537 E0.02365
G1 X110.138 Y56.151 E1.05397
G1 X110.892 Y56.151 E0.02365
G1 X110.892 Y22.537 E1.05397
G1 X111.646 Y22.537 E0.02365
G1 X111.646 Y56.151 E1.05397
G1 X112.400 Y56.151 E0.02365
G1 X112.400 Y22.537 E1.05397
G1 X113.155 Y22.537 E0.02365
G1 X113.155 Y56.151 E1.05397
G1 X113.909 Y56.151 E0.02365
G1 X113.909 Y22.537 E1.05397
G1 X114.663 Y22.537 E0.02365
G1 X114.663 Y25.159 E0.08224
G1 X115.417 Y25.159 E0.02365
G1 X115.417 Y22.537 E0.08224
G1 X116.171 Y22.537 E0.02365
G1 X116.171 Y25.159 E0.08224
G1 X116.925 Y25.159 E0.02365
G1 X116.925 Y22.537 E0.08224
G1 X117.680 Y22.537 E0.02365
G1 X117.680 Y25.159 E0.08224
G1 X118.434 Y25.159 E0.02365
G1 X118.434 Y22.537 E0.08224
G1 X119.188 Y22.537 E0.02365
G1 X119.188 Y25.329 E0.08756
;WIPE_START
G1 F8640.000
G1 X119.188 Y22.537 E-0.64480
G1 X118.689 Y22.537 E-0.11520
;WIPE_END
G1 E-0.04000 F2100.000
G1 Z0.600 F10800.000
G1 X118.978 Y27.947
G1 Z0.200
G1 E0.80000 F2100.000
;TYPE:Support material interface
;WIDTH:0.35
G1 F1200.000
G1 X118.978 Y25.502 E0.06244
G1 X118.471 Y25.502 E0.01295
G1 X118.471 Y27.809 E0.05891
G1 X117.964 Y27.809 E0.01295
G1 X117.964 Y25.502 E0.05891
G1 X117.457 Y25.502 E0.01295
G1 X117.457 Y27.809 E0.05891
G1 X116.950 Y27.809 E0.01295
G1 X116.950 Y25.502 E0.05891
G1 X116.443 Y25.502 E0.01295
G1 X116.443 Y30.116 E0.11782
G1 X115.935 Y30.116 E0.01295
G1 X115.935 Y25.502 E0.11782
G1 X115.428 Y25.502 E0.01295
G1 X115.428 Y30.116 E0.11782
G1 X115.266 Y30.116 E0.00416
G1 X115.266 Y29.112 E0.02562
G1 X115.044 Y28.890 E0.00801
G1 X114.921 Y28.890 E0.00313
G1 X114.921 Y25.363 E0.09006
;WIPE_START
G1 F8640.000
G1 X114.921 Y28.655 E-0.76000
;WIPE_END
G1 E-0.04000 F2100.000
G1 Z0.600 F10800.000
G1 X116.443 Y34.868
G1 Z0.200
G1 E0.80000 F2100.000
G1 F1200.000
G1 X116.443 Y32.423 E0.06244
G1 X115.935 Y32.423 E0.01295
G1 X115.935 Y34.730 E0.05891
G1 X115.428 Y34.730 E0.01295
G1 X115.428 Y32.423 E0.05891
G1 X115.266 Y32.423 E0.00416
G1 X115.266 Y33.126 E0.01795
G1 X115.044 Y33.348 E0.00801
G1 X114.921 Y33.348 E0.00313
G1 X114.921 Y34.868 E0.03882
G1 X115.417 Y32.250 F10800.000
;TYPE:Support material
;WIDTH:0.42
G1 F1200.000
G1 X115.417 Y30.458 E0.05621
G1 X116.171 Y30.458 E0.02365
G1 X116.171 Y32.081 E0.05088
G1 X116.925 Y32.081 E0.02365
G1 X116.925 Y30.458 E0.05088
G1 X117.138 Y30.458 E0.00666
G1 X117.138 Y28.151 E0.07234
G1 X117.680 Y28.151 E0.01699
G1 X117.680 Y50.537 E0.70192
G1 X118.434 Y50.537 E0.02365
G1 X118.434 Y28.151 E0.70192
G1 X119.188 Y28.151 E0.02365
G1 X119.188 Y50.707 E0.70724
;WIPE_START
G1 F8640.000
G1 X119.188 Y47.416 E-0.76000
;WIPE_END
G1 E-0.04000 F2100.000
G1 Z0.600 F10800.000
G1 X118.978 Y53.325
G1 Z0.200
G1 E0.80000 F2100.000
;TYPE:Support material interface
;WIDTH:0.35
G1 F1200.000
G1 X118.978 Y50.879 E0.06244
G1 X118.471 Y50.879 E0.01295
G1 X118.471 Y53.187 E0.05891
G1 X117.964 Y53.187 E0.01295
G1 X117.964 Y50.879 E0.05891
G1 X117.457 Y50.879 E0.01295
G1 X117.457 Y53.187 E0.05891
G1 X116.950 Y53.187 E0.01295
G1 X116.950 Y50.879 E0.05891
G1 X116.796 Y50.879 E0.00393
G1 X116.796 Y48.572 E0.05891
G1 X116.443 Y48.572 E0.00902
G1 X116.443 Y53.187 E0.11782
G1 X115.935 Y53.187 E0.01295
G1 X115.935 Y48.572 E0.11782
G1 X115.428 Y48.572 E0.01295
G1 X115.428 Y53.187 E0.11782
G1 X114.921 Y53.187 E0.01295
G1 X114.921 Y49.709 E0.08878
G1 X115.417 Y48.400 F10800.000
;TYPE:Support material
;WIDTH:0.42
G1 F1200.000
G1 X115.417 Y46.607 E0.05621
G1 X116.171 Y46.607 E0.02365
G1 X116.171 Y48.230 E0.05088
G1 X116.925 Y48.230 E0.02365
G1 X116.925 Y46.607 E0.05088
G1 X117.138 Y46.607 E0.00666
G1 X117.138 Y43.616 E0.09379
G1 X116.925 Y43.616 E0.00666
G1 X116.925 Y35.072 E0.26790
G1 X116.171 Y35.072 E0.02365
G1 X116.171 Y43.616 E0.26790
G1 X115.417 Y43.616 E0.02365
G1 X115.417 Y35.072 E0.26790
G1 X114.663 Y35.072 E0.02365
G1 X114.663 Y43.616 E0.26790
G1 X114.147 Y43.616 E0.01619
G1 X114.147 Y45.466 E0.05800
G1 X114.015 Y45.598 E0.00584
G1 X114.015 Y49.640 E0.12675
G1 X114.147 Y49.772 E0.00584
G1 X114.147 Y53.529 E0.11778
G1 X114.663 Y53.529 E0.01619
G1 X114.663 Y56.151 E0.08224
G1 X115.417 Y56.151 E0.02365
G1 X115.417 Y53.529 E0.08224
G1 X116.171 Y53.529 E0.02365
G1 X116.171 Y56.151 E0.08224
G1 X116.925 Y56.151 E0.02365
G1 X116.925 Y53.529 E0.08224
G1 X117.680 Y53.529 E0.02365
G1 X117.680 Y56.151 E0.08224
G1 X118.434 Y56.151 E0.02365
G1 X118.434 Y53.529 E0.08224
G1 X119.188 Y53.529 E0.02365
G1 X119.188 Y56.151 E0.08224
G1 X119.942 Y56.151 E0.02365
G1 X119.942 Y22.537 E1.05397
G1 X120.696 Y22.537 E0.02365
G1 X120.696 Y56.151 E1.05397
G1 X121.450 Y56.151 E0.02365
G1 X121.450 Y22.537 E1.05397
G1 X122.205 Y22.537 E0.02365
G1 X122.205 Y56.151 E1.05397
G1 X122.959 Y56.151 E0.02365
G1 X122.959 Y22.537 E1.05397
G1 X123.713 Y22.537 E0.02365
G1 X123.713 Y56.321 E1.05929
;WIPE_START
G1 F8640.000
G1 X123.713 Y53.030 E-0.76000
;WIPE_END
G1 E-0.04000 F2100.000
G1 Z0.600 F10800.000
G1 X116.443 Y46.403
G1 Z0.200
G1 E0.80000 F2100.000
;TYPE:Support material interface
;WIDTH:0.35
G1 F1200.000
G1 X116.443 Y43.958 E0.06244
G1 X115.935 Y43.958 E0.01295
G1 X115.935 Y46.265 E0.05891
G1 X115.428 Y46.265 E0.01295
G1 X115.428 Y43.958 E0.05891
G1 X114.921 Y43.958 E0.01295
G1 X114.921 Y45.529 E0.04010
;WIPE_START
G1 F8640.000
G1 X114.921 Y43.958 E-0.36264
G1 X115.428 Y43.958 E-0.11709
G1 X115.428 Y45.172 E-0.28027
;WIPE_END
G1 E-0.04000 F2100.000
G1 Z0.600 F10800.000
G1 X54.072 Y48.711
G1 Z0.200
G1 E0.80000 F2100.000
G1 F1200.000
G1 X54.072 Y46.265 E0.06244
G1 X53.565 Y46.265 E0.01295
G1 X53.565 Y48.572 E0.05891
G1 X53.058 Y48.572 E0.01295
G1 X53.058 Y46.265 E0.05891
G1 X52.551 Y46.265 E0.01295
G1 X52.551 Y48.572 E0.05891
G1 X52.197 Y48.572 E0.00902
G1 X52.197 Y50.879 E0.05891
G1 X52.044 Y50.879 E0.00393
G1 X52.044 Y46.265 E0.11782
G1 X51.536 Y46.265 E0.01295
G1 X51.536 Y50.879 E0.11782
G1 X51.029 Y50.879 E0.01295
G1 X51.029 Y47.572 E0.08444
G1 X50.584 Y47.991 E0.01562
G1 X50.522 Y47.964 E0.00171
G1 X50.522 Y50.879 E0.07443
G1 X50.015 Y50.879 E0.01295
G1 X50.015 Y46.265 E0.11782
G1 X50.522 Y46.265 E0.01295
G1 X50.522 Y46.890 E0.01597
G1 X51.029 Y46.890 E0.01295
G1 X51.029 Y46.127 E0.01949
;WIPE_START
G1 F8640.000
G1 X51.029 Y46.890 E-0.17629
G1 X50.522 Y46.890 E-0.11709
G1 X50.522 Y46.265 E-0.14438
G1 X50.015 Y46.265 E-0.11709
G1 X50.015 Y47.154 E-0.20516
;WIPE_END
G1 E-0.04000 F2100.000
G1 Z0.600 F10800.000
G1 X54.072 Y32.561
G1 Z0.200
G1 E0.80000 F2100.000
G1 F1200.000
G1 X54.072 Y30.116 E0.06244
G1 X53.565 Y30.116 E0.01295
G1 X53.565 Y32.423 E0.05891
G1 X53.058 Y32.423 E0.01295
G1 X53.058 Y30.116 E0.05891
G1 X52.551 Y30.116 E0.01295
G1 X52.551 Y32.423 E0.05891
G1 X52.044 Y32.423 E0.01295
G1 X52.044 Y27.809 E0.11782
G1 X51.536 Y27.809 E0.01295
G1 X51.536 Y32.423 E0.11782
G1 X51.029 Y32.423 E0.01295
G1 X51.029 Y31.798 E0.01596
G1 X50.522 Y31.798 E0.01295
G1 X50.522 Y32.423 E0.01596
G1 X50.015 Y32.423 E0.01295
G1 X50.015 Y27.809 E0.11782
G1 X50.522 Y27.809 E0.01295
G1 X50.522 Y30.751 E0.07513
G1 X50.619 Y30.728 E0.00253
G1 X51.029 Y31.083 E0.01385
G1 X51.029 Y27.670 E0.08712
; stop printing object MDX-1000_Outer_Piece.stl id:1 copy 0
; printing object MDX-1000_Inner_Piece.stl id:0 copy 0
;WIPE_START
G1 F8640.000
